X: 1
T: the Bob of Fettercairn
O: Campbell's CD 1796
R: reel
Z: 2011 John Chambers <jc:trillian.mit.edu>
M: C|
L: 1/8
K: G
B/c/ |\
"G"dBGB dBGB | "G"dBde "Bm"f2df | "A"e^cAc ecAc | "A"edef "Em"g2fe |
"G"dBGB dBGB | "Bm"dBde f2ed | "D"af"G"ge "D"fe"G"gB | "Am"AA"Bm"Bd "Em"e2ge ||
|:\
"G"dgBg dgBg | "G"dgBg "Bm"f2df | "A"ea^ca eaca | "A"edef "Em"g2fe |
"G"dgBg dgBg | "G"dgBg "D"f2df | "D"af"G"ge "D"fe"G"gB | "Am"AA"Bm"Bd "Em"e2eg :|
